!!!COM: Robert Schumann
!!!CNT: Deutsch
!!!TXO: Deutsch
!!!OTL: Ich wandelte unter den Ba2umen
!!!LYR: Heine
!!!OPR: Liederkreis
!!!OPS: Op.24
!!!ONM: No. 3
!!!ENC: Ben Fuhrman
!!!YOR: Schumann Lieder - Max Friedlaender, ed.,
!!!YOR: New York: C. F. Peters, Vol. 1
!!!ODT: 1840/
!!NB: Vocal melody and text only encoded.
!!NB: First instance of melodic material only encoded.
**kern	**silbe
*clefG2	*
*k[f#]	*
*M4/4	*
!!created: 6/2/06 13:05
!!proofed and posted: 6/2/06 13:05
!!edit time: 35 minutes
=4	=4
2r	.
4r	.
8r	.
{8d	{Ich
=5	=5
4g	wan-
8g	-del-
8g	-te
4f#	un-
8g	-ter
8a	den
=6	=6
2a	Ba2u-
4d	-men
4d	mit
=7	=7
4.g	mei-
8g	-nem
(8g	Gram
8f#	|
8.g)	|
16a	al-
=8	=8
2.a	-lein;
4d	da
=9	=9
4.b	kam
8b	das
4b	al-
4f#	-te
=10	=10
2a	Tra2u-
4g	-men
4f#	und
=11	=11
6e	schlich
6g	mir
6b	ins
4.ee	Herz
8dd	hin-
=12	=12
2cc}	-ein.}
2r	.
=13	=13
2r	.
4r	.
8r	.
{8d	{Wer
=14	=14
4g	hat
8g	euch
8g	dies
4f#	Wo2rt-
8g	-lein
8a	ge-
=15	=15
2a	-leh-
4d	-ret,
4d	ihr
=16	=16
4g	Vo2g-
8g	-lein
8g	-in
(8g	luf-
8f#)	|
8.g	-ti-
16a	-ger
=17	=17
2.a	Ho2h'?
4d	Schweigt
=18	=18
4b	still!
8b	wenn
8b	mein
4.b	Herz
8f#	es
=19	=19
2a	ho2-
4g	-ret,
4f#	dann
=20	=20
6e	tut
6g	es
6b	noch
6ee	ein-
6ee	-mal
6dd	so
=21	=21
2cc}	weh.}
2r	.
=22	=22
2r	.
4r	.
{4g	{"Es
=23	=23
6g	kam
6g	ein
6g	Jung-
6g	-fra2u-
6g	-lein-
6g	ge-
=24	=24
2b-	-gan-
4g	-gen,
4fn	die
=25	=25
4fn	sang
4fn	es
(6fn	im-
6g)	|
6a-	-mer-
=26	=26
2g}	-fort,}
4r	.
{4g	{da
=27	=27
6g	ha-
6g	-ben
6g	wir
6g	Vo2g-
6g	-lein
6g	ge-
=28	=28
2b-	-fan-
4g	-gen
4fn	das
=29	=29
4fn	hu2b-
4fn	-sche,
(6fn	gold'-
6g)	|
6a-	-ne
=30	=30
[2g	Wort."
4g]}	|}
8r	.
{8d	{Das
=31	=31
4g	sollt
8g	ihr
8g	mir
(4f#	nicht
8g)	|
8a	er-
=32	=32
2a	-za2h-
4d	-len,
8r	.
8d	ihr
=33	=33
4.g	Vo2g-
8g	lein
(8g	wun
8f#	|
8g.)	|
16a	-der-
=34	=34
2a.	-schlau;
4d	ihr
=35	=35
4b	wollt
8b	mei-
8b	-nen
4b	Kum-
8f#	-mer
8f#	mir
=36	=36
2a	steh-
4g}	-len,}
4r	.
=37	=37
{4e	{ich
8e	a-
8e	-ber
4g	nie-
8f#	-man
8f#	dem
=38	=38
(2d#	trau'
4dn)}	|}
4r	.
=39	=39
{4c	{ich
8c	a-
8c	-ber
4e	nie-
8d	-man
8d	dem
=40	=40
2B}	trau'.}
2r	.
==	==
*-	*-
